**harm	**harte	**silbe	**silbe	**silbe	**rhyme	**timestamp	**phrase	**leadinstrument	**kern
*M4/4	*M4/4	*	*	*	*	*	*	*	*
*	*	*	*	*	*	*	*	*	*
*	*	*	*	*	*	*	*	*	*
*E-:	*E-:	*	*	*	*	*	*	*	*E-:
*	*	*	*	*	*	*	*	*	*
*	*	*	*	*	*	*	*	*	*
1r;	N	.	.	.	.	0	.	r	1r;
.	.	.	.	.	.	.	.	.	.
.	.	It's	It's	.	.	.	.	.	.
.	.	the	the	.	.	.	.	.	.
=1	=1	=1	=1	=1	=1	=1	=1	=1	=1
*>Letter>A	*>Letter>A	*>Letter>A	*>Letter>A	*>Letter>A	*>Letter>A	*>Letter>A	*>Letter>A	*>Letter>A	*>Letter>A
*>Label>Intro	*>Label>Intro	*>Label>Intro	*>Label>Intro	*>Label>Intro	*>Label>Intro	*>Label>Intro	*>Label>Intro	*>Label>Intro	*>Label>Intro
1-III	N	lit-	lit-	.	.	0.438	newline	voice	1G- 1b- 1dd-
.	.	-tle	-tle	.	.	.	.	.	.
.	.	old	old	.	.	.	.	.	.
.	.	la-	la-	.	.	.	.	.	.
.	.	-dy	-dy	.	.	.	.	.	.
.	.	from	from	.	.	.	.	.	.
=2	=2	=2	=2	=2	=2	=2	=2	=2	=2
1V	N	Pa-	Pa-	.	.	2.722	.	voice	1B- 1dd 1ff
.	.	-sa-	-sa-	.	.	.	.	.	.
.	.	_	_	.	.	.	.	.	.
.	.	-de	-de	.	.	.	.	.	.
.	.	_	_	.	.	.	.	.	.
.	.	na	na	.	.	.	.	.	.
=3	=3	=3	=3	=3	=3	=3	=3	=3	=3
1V	B-:maj	_	_	.	.	4.384	.	voice	1B- 1dd 1ff
=4	=4	=4	=4	=4	=4	=4	=4	=4	=4
1V	B-:maj	_	_	.	.	6.045	.	voice	1B- 1dd 1ff
.	.	.	.	.	.	.	.	.	.
.	.	.	.	.	.	.	.	.	.
.	.	The	.	.	.	.	.	.	.
=5	=5	=5	=5	=5	=5	=5	=5	=5	=5
*>Letter>B	*>Letter>B	*>Letter>B	*>Letter>B	*>Letter>B	*>Letter>B	*>Letter>B	*>Letter>B	*>Letter>B	*>Letter>B
*>Label>Verse	*>Label>Verse	*>Label>Verse	*>Label>Verse	*>Label>Verse	*>Label>Verse	*>Label>Verse	*>Label>Verse	*>Label>Verse	*>Label>Verse
1I	E-:maj	lit-	.	.	.	7.706	newline	voice	1E- 1g 1b-
.	.	-tle	.	.	.	.	.	.	.
.	.	old	.	.	.	.	.	.	.
.	.	la-	.	.	.	.	.	.	.
.	.	-dy	.	.	.	.	.	.	.
.	.	from	.	.	.	.	.	.	.
=6	=6	=6	=6	=6	=6	=6	=6	=6	=6
1I	E-:maj	Pa-	.	.	.	9.365	.	voice	1E- 1g 1b-
.	.	-sa-	.	.	.	.	.	.	.
.	.	-de	.	.	(A	.	.	.	.
.	.	_	.	.	.	.	.	.	.
.	.	na!	.	.	a)	.	.	.	.
=7	=7	=7	=7	=7	=7	=7	=7	=7	=7
1I	E-:maj	.	Go,	.	.	11.024	.	voice	1E- 1g 1b-
.	.	.	gran-	.	.	.	.	.	.
.	.	.	-ny,	.	.	.	.	.	.
.	.	.	go,	.	.	.	.	.	.
.	.	.	gran-	.	.	.	.	.	.
.	.	.	-ny,	.	.	.	.	.	.
=8	=8	=8	=8	=8	=8	=8	=8	=8	=8
4.IV	A-:maj	.	go	.	.	12.682	.	voice	4.A- 4.cc 4.ee-
.	.	.	gran-	.	.	.	.	.	.
.	.	.	-ny	.	.	.	.	.	.
8%5I	E-:maj	.	go	.	.	13.512	.	voice	3...E- 3...g 3...b-
.	.	.	_	.	.	.	.	.	.
.	.	Has	.	.	.	.	.	.	.
.	.	.	.	.	.	.	.	.	.
.	.	a	.	.	.	.	.	.	.
=9	=9	=9	=9	=9	=9	=9	=9	=9	=9
1I	E-:maj	pret-	.	.	.	14.341	newline	voice	1E- 1g 1b-
.	.	-ty	.	.	.	.	.	.	.
.	.	lit-	.	.	.	.	.	.	.
.	.	-tle	.	.	.	.	.	.	.
.	.	flo-	.	.	.	.	.	.	.
.	.	-wer-	.	.	.	.	.	.	.
.	.	-bed	.	.	.	.	.	.	.
.	.	of	.	.	.	.	.	.	.
=10	=10	=10	=10	=10	=10	=10	=10	=10	=10
1I	E-:maj	white	.	.	.	15.989	.	voice	1E- 1g 1b-
.	.	gar-	.	.	.	.	.	.	.
.	.	-den-	.	.	(A	.	.	.	.
.	.	_	.	.	.	.	.	.	.
.	.	-ias	.	.	a)	.	.	.	.
=11	=11	=11	=11	=11	=11	=11	=11	=11	=11
1V7	B-:7	_	Go,	.	.	17.637	.	voice	1B- 1dd 1ff 1aa-
.	.	.	gran-	.	.	.	.	.	.
.	.	.	-ny,	.	.	.	.	.	.
.	.	.	go,	.	.	.	.	.	.
.	.	.	gran-	.	.	.	.	.	.
.	.	.	-ny,	.	.	.	.	.	.
=12	=12	=12	=12	=12	=12	=12	=12	=12	=12
4.II	F:maj	.	go	.	.	19.285	.	voice	4.F 4.a 4.cc
.	.	.	gran-	.	.	.	.	.	.
.	.	.	-ny	.	.	.	.	.	.
8%5V7	B-:7	.	go	.	.	20.109	.	voice	3...B- 3...dd 3...ff 3...aa-
.	.	.	_	.	.	.	.	.	.
.	.	.	.	.	.	.	.	.	.
.	.	.	.	.	.	.	.	.	.
.	.	But	.	.	.	.	.	.	.
=13	=13	=13	=13	=13	=13	=13	=13	=13	=13
1I	E-:maj	parked	.	.	.	20.933	newline	voice	1E- 1g 1b-
.	.	in	.	.	.	.	.	.	.
.	.	a	.	.	.	.	.	.	.
.	.	ric-	.	.	.	.	.	.	.
.	.	-ke-	.	.	.	.	.	.	.
.	.	-ty	.	.	.	.	.	.	.
.	.	old	.	.	.	.	.	.	.
=14	=14	=14	=14	=14	=14	=14	=14	=14	=14
1IV	A-:maj	_	.	.	.	22.585	.	voice	1A- 1cc 1ee-
.	.	ga-	.	.	.	.	.	.	.
.	.	-rage,	.	.	B	.	.	.	.
.	.	_	.	.	.	.	.	.	.
.	.	is	.	.	.	.	.	.	.
.	.	a	.	.	.	.	.	.	.
=15	=15	=15	=15	=15	=15	=15	=15	=15	=15
2II	F:maj	brand	brand	.	.	24.237	.	voice	2F 2a 2cc
.	.	new	new	.	.	.	.	.	.
2-VII	D-:maj	shi-	shi-	.	.	25.063	.	voice	2D- 2f 2a-
.	.	-ny	-ny	.	.	.	.	.	.
.	.	red	red	.	.	.	.	.	.
=16	=16	=16	=16	=16	=16	=16	=16	=16	=16
1V7	B-:7	su-	su-	.	.	25.889	.	voice	1B- 1dd 1ff 1aa-
.	.	-per	-per	.	.	.	.	.	.
.	.	Stock	Stock	.	.	.	.	.	.
.	.	Dodge	Dodge	.	B	.	.	.	.
=17	=17	=17	=17	=17	=17	=17	=17	=17	=17
1V7	B-:7	_	_	.	.	27.541	.	voice	1B- 1dd 1ff 1aa-
*	*	*	*	*	*	*	*	*	*
.	.	.	.	.	.	.	.	.	.
.	.	.	.	Ooh	.	.	.	.	.
.	.	And	.	.	.	.	.	.	.
=18	=18	=18	=18	=18	=18	=18	=18	=18	=18
*>Letter>A	*>Letter>A	*>Letter>A	*>Letter>A	*>Letter>A	*>Letter>A	*>Letter>A	*>Letter>A	*>Letter>A	*>Letter>A
*>Label>Chorus	*>Label>Chorus	*>Label>Chorus	*>Label>Chorus	*>Label>Chorus	*>Label>Chorus	*>Label>Chorus	*>Label>Chorus	*>Label>Chorus	*>Label>Chorus
1I	E-:maj	ev-	.	_	.	29.193	newline	voice	1E- 1g 1b-
.	.	-'ry-	.	.	.	.	.	.	.
.	.	-bo-	.	.	.	.	.	.	.
.	.	-dy's	.	.	.	.	.	.	.
.	.	sa-	.	.	.	.	.	.	.
.	.	-yin'	.	.	.	.	.	.	.
.	.	that	.	.	.	.	.	.	.
.	.	there's	.	.	.	.	.	.	.
=19	=19	=19	=19	=19	=19	=19	=19	=19	=19
1I	E-:maj	no-	.	_	.	30.826	.	voice	1E- 1g 1b-
.	.	-bo-	.	.	.	.	.	.	.
.	.	-dy	.	_	.	.	.	.	.
.	.	_	.	.	.	.	.	.	.
.	.	mea	.	.	(A	.	.	.	.
.	.	_	.	_	.	.	.	.	.
.	.	ner	.	.	a)	.	.	.	.
.	.	than	.	_	.	.	.	.	.
.	.	the	.	.	.	.	.	.	.
=20	=20	=20	=20	=20	=20	=20	=20	=20	=20
1I	E-:maj	lit-	.	_	.	32.459	.	voice	1E- 1g 1b-
.	.	-tle	.	.	.	.	.	.	.
.	.	old	.	.	.	.	.	.	.
.	.	_	.	.	.	.	.	.	.
.	.	la-	.	.	.	.	.	.	.
.	.	-dy	.	.	.	.	.	.	.
.	.	from	.	.	.	.	.	.	.
=21	=21	=21	=21	=21	=21	=21	=21	=21	=21
1I	E-:maj	Pa-	.	_	.	34.091	.	voice	1E- 1g 1b-
.	.	-sa-	.	.	.	.	.	.	.
.	.	-de	.	.	(A	.	.	.	.
.	.	_	.	.	.	.	.	.	.
.	.	na	.	.	a)	.	.	.	.
.	.	.	.	Ooh!	.	.	.	.	.
.	.	.	She	.	.	.	.	.	.
=22	=22	=22	=22	=22	=22	=22	=22	=22	=22
1IV	A-:maj	.	drives	_	.	35.724	newline	voice	1A- 1cc 1ee-
.	.	.	re-	.	.	.	.	.	.
.	.	.	-al	.	.	.	.	.	.
.	.	.	fast	.	.	.	.	.	.
.	.	.	and	.	.	.	.	.	.
.	.	.	she	.	.	.	.	.	.
=23	=23	=23	=23	=23	=23	=23	=23	=23	=23
*	*	*	*	*	*	*	*	*	*
1IV	A-:maj	.	drives	_	.	37.36	.	voice	1A- 1cc 1ee-
.	.	.	_	.	.	.	.	.	.
.	.	.	real	.	.	.	.	.	.
.	.	.	.	_	.	.	.	.	.
.	.	.	hard	.	C	.	.	.	.
.	.	.	.	_	.	.	.	.	.
.	.	She's	.	.	.	.	.	.	.
.	.	.	.	_	.	.	.	.	.
.	.	the	.	.	.	.	.	.	.
=24	=24	=24	=24	=24	=24	=24	=24	=24	=24
1I	E-:maj	ter-	.	_	.	38.996	.	voice	1E- 1g 1b-
.	.	-ror	.	.	.	.	.	.	.
.	.	of	.	.	.	.	.	.	.
.	.	Co-	.	.	.	.	.	.	.
.	.	-lo-	.	.	.	.	.	.	.
.	.	-ra-	.	.	.	.	.	.	.
.	.	-do	.	.	.	.	.	.	.
=25	=25	=25	=25	=25	=25	=25	=25	=25	=25
1I	E-:maj	Bou-	.	_	.	40.632	.	voice	1E- 1g 1b-
.	.	-le-	.	.	.	.	.	.	.
.	.	-vard!	.	.	C	.	.	.	.
.	.	_	.	.	.	.	.	.	.
.	.	It's	It's	.	.	.	.	.	.
.	.	the	the	.	.	.	.	.	.
=26	=26	=26	=26	=26	=26	=26	=26	=26	=26
1-III	G-:maj	lit-	lit-	.	.	42.268	newline	voice	1G- 1b- 1dd-
.	.	-tle	-tle	.	.	.	.	.	.
.	.	old	old	.	.	.	.	.	.
.	.	la-	la-	.	.	.	.	.	.
.	.	-dy	-dy	.	.	.	.	.	.
.	.	from	from	.	.	.	.	.	.
=27	=27	=27	=27	=27	=27	=27	=27	=27	=27
1V	B-:maj	Pa-	Pa-	.	.	43.928	.	voice	1B- 1dd 1ff
.	.	-sa-	-sa-	.	.	.	.	.	.
.	.	_	_	.	.	.	.	.	.
.	.	-de	-de	.	(A	.	.	.	.
.	.	_	_	.	.	.	.	.	.
.	.	na	na	.	a)	.	.	.	.
=28	=28	=28	=28	=28	=28	=28	=28	=28	=28
1V	B-:maj	_	_	.	.	45.587	.	voice	1B- 1dd 1ff
=29	=29	=29	=29	=29	=29	=29	=29	=29	=29
1V	B-:maj	_	_	.	.	47.247	.	voice	1B- 1dd 1ff
.	.	.	.	.	.	.	.	.	.
.	.	If	.	.	.	.	.	.	.
.	.	you	.	.	.	.	.	.	.
=30	=30	=30	=30	=30	=30	=30	=30	=30	=30
*>Letter>B	*>Letter>B	*>Letter>B	*>Letter>B	*>Letter>B	*>Letter>B	*>Letter>B	*>Letter>B	*>Letter>B	*>Letter>B
*>Label>Verse	*>Label>Verse	*>Label>Verse	*>Label>Verse	*>Label>Verse	*>Label>Verse	*>Label>Verse	*>Label>Verse	*>Label>Verse	*>Label>Verse
1I	E-:maj	see	.	.	.	48.907	newline	voice	1E- 1g 1b-
.	.	her	.	.	.	.	.	.	.
.	.	on	.	.	.	.	.	.	.
.	.	the	.	.	.	.	.	.	.
.	.	street,	.	.	.	.	.	.	.
.	.	don't	.	.	.	.	.	.	.
=31	=31	=31	=31	=31	=31	=31	=31	=31	=31
1I	E-:maj	try	.	.	.	50.583	.	voice	1E- 1g 1b-
.	.	to	.	.	.	.	.	.	.
.	.	choose	.	.	D	.	.	.	.
.	.	_	.	.	.	.	.	.	.
.	.	her!	.	.	.	.	.	.	.
=32	=32	=32	=32	=32	=32	=32	=32	=32	=32
1I	E-:maj	.	Go,	.	.	52.26	.	voice	1E- 1g 1b-
.	.	.	gran-	.	.	.	.	.	.
.	.	.	-ny,	.	.	.	.	.	.
.	.	.	go,	.	.	.	.	.	.
.	.	.	gran-	.	.	.	.	.	.
.	.	.	-ny,	.	.	.	.	.	.
=33	=33	=33	=33	=33	=33	=33	=33	=33	=33
4.IV	A-:maj	.	go	.	.	53.936	.	voice	4.A- 4.cc 4.ee-
.	.	.	gran-	.	.	.	.	.	.
.	.	.	-ny	.	.	.	.	.	.
8%5I	E-:maj	.	go	.	.	54.774	.	voice	3...E- 3...g 3...b-
.	.	.	_	.	.	.	.	.	.
.	.	.	.	.	.	.	.	.	.
.	.	.	.	.	.	.	.	.	.
.	.	You	.	.	.	.	.	.	.
=34	=34	=34	=34	=34	=34	=34	=34	=34	=34
1I	E-:maj	might	.	.	.	55.612	newline	voice	1E- 1g 1b-
.	.	drive	.	.	.	.	.	.	.
.	.	a	.	.	.	.	.	.	.
.	.	go-	.	.	.	.	.	.	.
.	.	-er	.	.	.	.	.	.	.
.	.	but	.	.	.	.	.	.	.
.	.	you'll	.	.	.	.	.	.	.
=35	=35	=35	=35	=35	=35	=35	=35	=35	=35
1I	E-:maj	ne-	.	.	.	57.246	.	voice	1E- 1g 1b-
.	.	-ver	.	.	.	.	.	.	.
.	.	lose	.	.	D	.	.	.	.
.	.	_	.	.	.	.	.	.	.
.	.	her	.	.	.	.	.	.	.
=36	=36	=36	=36	=36	=36	=36	=36	=36	=36
1V7	B-:7	_	Go,	.	.	58.88	.	voice	1B- 1dd 1ff 1aa-
.	.	.	gran-	.	.	.	.	.	.
.	.	.	-ny,	.	.	.	.	.	.
.	.	.	go,	.	.	.	.	.	.
.	.	.	gran-	.	.	.	.	.	.
.	.	.	-ny,	.	.	.	.	.	.
=37	=37	=37	=37	=37	=37	=37	=37	=37	=37
4.II	F:maj	.	go	.	.	60.514	.	voice	4.F 4.a 4.cc
.	.	.	gran-	.	.	.	.	.	.
.	.	.	-ny	.	.	.	.	.	.
8%5V7	B-:7	.	go	.	.	61.331	.	voice	3...B- 3...dd 3...ff 3...aa-
.	.	.	_	.	.	.	.	.	.
.	.	Well,	.	.	.	.	.	.	.
.	.	.	.	.	.	.	.	.	.
.	.	she's	.	.	.	.	.	.	.
=38	=38	=38	=38	=38	=38	=38	=38	=38	=38
1I	E-:maj	gon-	.	.	.	62.148	newline	voice	1E- 1g 1b-
.	.	-na	.	.	.	.	.	.	.
.	.	get	.	.	.	.	.	.	.
.	.	a	.	.	.	.	.	.	.
.	.	tic-	.	.	.	.	.	.	.
.	.	-ket	.	.	.	.	.	.	.
.	.	soo	.	.	.	.	.	.	.
=39	=39	=39	=39	=39	=39	=39	=39	=39	=39
1IV	A-:maj	_	.	.	.	63.814	.	voice	1A- 1cc 1ee-
.	.	ner	.	.	.	.	.	.	.
.	.	or	.	.	(e	.	.	.	.
.	.	la	.	.	E	.	.	.	.
.	.	_	.	.	.	.	.	.	.
.	.	ter	.	.	e)	.	.	.	.
.	.	cuz	.	.	.	.	.	.	.
.	.	she	.	.	.	.	.	.	.
=40	=40	=40	=40	=40	=40	=40	=40	=40	=40
2II	F:maj	can't	can't	.	.	65.48	.	voice	2F 2a 2cc
.	.	keep	keep	.	.	.	.	.	.
.	.	her	her	.	.	.	.	.	.
2-VII	D-:maj	foot	foot	.	.	66.313	.	voice	2D- 2f 2a-
.	.	off	off	.	.	.	.	.	.
.	.	the	the	.	.	.	.	.	.
.	.	ac-	ac-	.	.	.	.	.	.
=41	=41	=41	=41	=41	=41	=41	=41	=41	=41
1V7	B-:7	-ce-	-ce-	.	.	67.146	.	voice	1B- 1dd 1ff 1aa-
.	.	-le-	-le-	.	(e	.	.	.	.
.	.	-ra-	-ra-	.	E	.	.	.	.
.	.	-tor	-tor	.	e)	.	.	.	.
=42	=42	=42	=42	=42	=42	=42	=42	=42	=42
1V7	B-:7	_	_	.	.	68.812	.	voice	1B- 1dd 1ff 1aa-
*	*	*	*	*	*	*	*	*	*
.	.	.	.	.	.	.	.	.	.
.	.	.	.	Ooh	.	.	.	.	.
.	.	And	.	.	.	.	.	.	.
=43	=43	=43	=43	=43	=43	=43	=43	=43	=43
*>Letter>A	*>Letter>A	*>Letter>A	*>Letter>A	*>Letter>A	*>Letter>A	*>Letter>A	*>Letter>A	*>Letter>A	*>Letter>A
*>Label>Chorus	*>Label>Chorus	*>Label>Chorus	*>Label>Chorus	*>Label>Chorus	*>Label>Chorus	*>Label>Chorus	*>Label>Chorus	*>Label>Chorus	*>Label>Chorus
1I	E-:maj	ev-	.	_	.	70.478	newline	voice	1E- 1g 1b-
.	.	-'ry-	.	.	.	.	.	.	.
.	.	-bo-	.	.	.	.	.	.	.
.	.	-dy's	.	.	.	.	.	.	.
.	.	sa-	.	.	.	.	.	.	.
.	.	-yin'	.	.	.	.	.	.	.
.	.	that	.	.	.	.	.	.	.
.	.	there's	.	.	.	.	.	.	.
=44	=44	=44	=44	=44	=44	=44	=44	=44	=44
1I	E-:maj	no-	.	_	.	72.127	.	voice	1E- 1g 1b-
.	.	-bo-	.	.	.	.	.	.	.
.	.	-dy	.	_	.	.	.	.	.
.	.	_	.	.	.	.	.	.	.
.	.	mea	.	.	(A	.	.	.	.
.	.	_	.	_	.	.	.	.	.
.	.	ner	.	.	a)	.	.	.	.
.	.	than	.	_	.	.	.	.	.
.	.	the	.	.	.	.	.	.	.
=45	=45	=45	=45	=45	=45	=45	=45	=45	=45
1I	E-:maj	lit-	.	_	.	73.776	.	voice	1E- 1g 1b-
.	.	-tle	.	.	.	.	.	.	.
.	.	old	.	.	.	.	.	.	.
.	.	_	.	.	.	.	.	.	.
.	.	la-	.	.	.	.	.	.	.
.	.	-dy	.	.	.	.	.	.	.
.	.	from	.	.	.	.	.	.	.
=46	=46	=46	=46	=46	=46	=46	=46	=46	=46
1I	E-:maj	Pa-	.	_	.	75.424	.	voice	1E- 1g 1b-
.	.	-sa-	.	.	.	.	.	.	.
.	.	-de	.	.	(A	.	.	.	.
.	.	_	.	.	.	.	.	.	.
.	.	na	.	.	a)	.	.	.	.
.	.	.	.	Ooh!	.	.	.	.	.
.	.	.	She	.	.	.	.	.	.
=47	=47	=47	=47	=47	=47	=47	=47	=47	=47
1IV	A-:maj	.	drives	_	.	77.073	newline	voice	1A- 1cc 1ee-
.	.	.	re-	.	.	.	.	.	.
.	.	.	-al	.	.	.	.	.	.
.	.	.	fast	.	.	.	.	.	.
.	.	.	and	.	.	.	.	.	.
.	.	.	she	.	.	.	.	.	.
=48	=48	=48	=48	=48	=48	=48	=48	=48	=48
*	*	*	*	*	*	*	*	*	*
1IV	A-:maj	.	drives	_	.	78.704	.	voice	1A- 1cc 1ee-
.	.	.	_	.	.	.	.	.	.
.	.	.	real	.	.	.	.	.	.
.	.	.	.	_	.	.	.	.	.
.	.	.	hard	.	C	.	.	.	.
.	.	.	.	_	.	.	.	.	.
.	.	She's	.	.	.	.	.	.	.
.	.	.	.	_	.	.	.	.	.
.	.	the	.	.	.	.	.	.	.
=49	=49	=49	=49	=49	=49	=49	=49	=49	=49
1I	E-:maj	ter-	.	_	.	80.335	.	voice	1E- 1g 1b-
.	.	-ror	.	.	.	.	.	.	.
.	.	of	.	.	.	.	.	.	.
.	.	Co-	.	.	.	.	.	.	.
.	.	-lo-	.	.	.	.	.	.	.
.	.	-ra-	.	.	.	.	.	.	.
.	.	-do	.	.	.	.	.	.	.
=50	=50	=50	=50	=50	=50	=50	=50	=50	=50
1I	E-:maj	Bou-	.	_	.	81.966	.	voice	1E- 1g 1b-
.	.	-le-	.	.	.	.	.	.	.
.	.	-vard!	.	.	C	.	.	.	.
.	.	_	.	.	.	.	.	.	.
.	.	It's	It's	.	.	.	.	.	.
.	.	the	the	.	.	.	.	.	.
=51	=51	=51	=51	=51	=51	=51	=51	=51	=51
1-III	G-:maj	lit-	lit-	.	.	83.598	newline	voice	1G- 1b- 1dd-
.	.	-tle	-tle	.	.	.	.	.	.
.	.	old	old	.	.	.	.	.	.
.	.	la-	la-	.	.	.	.	.	.
.	.	-dy	-dy	.	.	.	.	.	.
.	.	from	from	.	.	.	.	.	.
=52	=52	=52	=52	=52	=52	=52	=52	=52	=52
1V	B-:maj	Pa-	Pa-	.	.	85.265	.	voice	1B- 1dd 1ff
.	.	-sa-	-sa-	.	.	.	.	.	.
.	.	_	_	.	.	.	.	.	.
.	.	-de	-de	.	.	.	.	.	.
.	.	_	_	.	.	.	.	.	.
.	.	na	na	.	.	.	.	.	.
=53	=53	=53	=53	=53	=53	=53	=53	=53	=53
1V	B-:maj	_	_	.	.	86.933	.	voice	1B- 1dd 1ff
=54	=54	=54	=54	=54	=54	=54	=54	=54	=54
1#IV	A:maj	_	_	.	.	88.6	.	voice	1A 1cc# 1ee
.	.	.	.	.	.	.	.	.	.
=55	=55	=55	=55	=55	=55	=55	=55	=55	=55
*>Letter>B2	*>Letter>B2	*>Letter>B2	*>Letter>B2	*>Letter>B2	*>Letter>B2	*>Letter>B2	*>Letter>B2	*>Letter>B2	*>Letter>B2
*>Label>Verse	*>Label>Verse	*>Label>Verse	*>Label>Verse	*>Label>Verse	*>Label>Verse	*>Label>Verse	*>Label>Verse	*>Label>Verse	*>Label>Verse
*F:	*F:	*	*	*	*	*F:	*F:	*F:	*F:
1I	F:maj	.	.	.	.	90.268	newline	harmonica	1F 1a 1cc
=56	=56	=56	=56	=56	=56	=56	=56	=56	=56
1I	F:maj	.	.	.	.	91.93	.	harmonica	1F 1a 1cc
=57	=57	=57	=57	=57	=57	=57	=57	=57	=57
1I	F:maj	.	Go,	.	.	93.592	.	harmonica	1F 1a 1cc
.	.	.	gran-	.	.	.	.	.	.
.	.	.	-ny,	.	.	.	.	.	.
.	.	.	go,	.	.	.	.	.	.
.	.	.	gran-	.	.	.	.	.	.
.	.	.	-ny,	.	.	.	.	.	.
=58	=58	=58	=58	=58	=58	=58	=58	=58	=58
4.IV	B-:maj	.	go	.	.	95.254	.	harmonica	4.B- 4.dd 4.ff
.	.	.	gran-	.	.	.	.	.	.
.	.	.	-ny	.	.	.	.	.	.
8%5I	F:maj	.	go	.	.	96.085	.	harmonica	3...F 3...a 3...cc
.	.	.	_	.	.	.	.	.	.
.	.	.	.	.	.	.	.	.	.
.	.	.	.	.	.	.	.	.	.
=59	=59	=59	=59	=59	=59	=59	=59	=59	=59
1I	F:maj	.	.	.	.	96.916	newline	harmonica	1F 1a 1cc
=60	=60	=60	=60	=60	=60	=60	=60	=60	=60
1I	F:maj	.	.	.	.	98.538	.	harmonica	1F 1a 1cc
=61	=61	=61	=61	=61	=61	=61	=61	=61	=61
1V7	C:7	.	Go,	.	.	100.16	.	harmonica	1C 1e 1g 1b-
.	.	.	gran-	.	.	.	.	.	.
.	.	.	-ny,	.	.	.	.	.	.
.	.	.	go,	.	.	.	.	.	.
.	.	.	gran-	.	.	.	.	.	.
.	.	.	-ny,	.	.	.	.	.	.
=62	=62	=62	=62	=62	=62	=62	=62	=62	=62
4.II	G:maj	.	go	.	.	101.782	.	harmonica	4.G 4.b 4.dd
.	.	.	gran-	.	.	.	.	.	.
.	.	.	-ny	.	.	.	.	.	.
8%5V7	C:7	.	go	.	.	102.593	.	harmonica	3...C 3...e 3...g 3...b-
.	.	.	_	.	.	.	.	.	.
.	.	.	.	.	.	.	.	.	.
.	.	.	.	.	.	.	.	.	.
.	.	The	.	.	.	.	.	.	.
=63	=63	=63	=63	=63	=63	=63	=63	=63	=63
1I	F:maj	guys	.	.	.	103.404	newline	voice	1F 1a 1cc
.	.	come	.	.	.	.	.	.	.
.	.	to	.	.	.	.	.	.	.
.	.	race	.	.	.	.	.	.	.
.	.	her	.	.	.	.	.	.	.
.	.	from	.	.	.	.	.	.	.
=64	=64	=64	=64	=64	=64	=64	=64	=64	=64
1IV	B-:maj	miles	.	.	.	105.06	.	voice	1B- 1dd 1ff
.	.	a-	.	.	.	.	.	.	.
.	.	-round,	.	.	F	.	.	.	.
.	.	_	.	.	.	.	.	.	.
.	.	but	.	.	.	.	.	.	.
.	.	she'll	.	.	.	.	.	.	.
=65	=65	=65	=65	=65	=65	=65	=65	=65	=65
2II	G:maj	give	give	.	.	106.715	.	voice	2G 2b 2dd
.	.	them	them	.	.	.	.	.	.
.	.	a	a	.	.	.	.	.	.
.	.	length,	length,	.	.	.	.	.	.
2-VII	E-:maj	_	_	.	.	107.543	.	voice	2E- 2g 2b-
.	.	then	then	.	.	.	.	.	.
.	.	she'll	she'll	.	.	.	.	.	.
=66	=66	=66	=66	=66	=66	=66	=66	=66	=66
1V7	C:7	shut	shut	.	.	108.371	.	voice	1C 1e 1g 1b-
.	.	them	them	.	.	.	.	.	.
.	.	_	_	.	.	.	.	.	.
.	.	down	down	.	F	.	.	.	.
.	.	_	down	.	.	.	.	.	.
=67	=67	=67	=67	=67	=67	=67	=67	=67	=67
1V7	C:7	_	_	.	.	110.027	.	voice	1C 1e 1g 1b-
.	.	.	.	.	.	.	.	.	.
*	*	*	*	*	*	*	*	*	*
.	.	.	.	.	.	.	.	.	.
.	.	.	.	Ooh	.	.	.	.	.
.	.	_	.	.	.	.	.	.	.
=68	=68	=68	=68	=68	=68	=68	=68	=68	=68
*>Letter>A2	*>Letter>A2	*>Letter>A2	*>Letter>A2	*>Letter>A2	*>Letter>A2	*>Letter>A2	*>Letter>A2	*>Letter>A2	*>Letter>A2
*>Label>Chorus	*>Label>Chorus	*>Label>Chorus	*>Label>Chorus	*>Label>Chorus	*>Label>Chorus	*>Label>Chorus	*>Label>Chorus	*>Label>Chorus	*>Label>Chorus
1I	F:maj	ev-	.	_	.	111.682	newline	voice	1F 1a 1cc
.	.	-'ry-	.	.	.	.	.	.	.
.	.	-bo-	.	.	.	.	.	.	.
.	.	-dy's	.	.	.	.	.	.	.
.	.	sa-	.	.	.	.	.	.	.
.	.	-yin'	.	.	.	.	.	.	.
.	.	that	.	.	.	.	.	.	.
.	.	there's	.	.	.	.	.	.	.
=69	=69	=69	=69	=69	=69	=69	=69	=69	=69
1I	F:maj	no-	.	_	.	113.328	.	voice	1F 1a 1cc
.	.	-bo-	.	.	.	.	.	.	.
.	.	-dy	.	_	.	.	.	.	.
.	.	_	.	.	.	.	.	.	.
.	.	mea	.	.	(A	.	.	.	.
.	.	_	.	_	.	.	.	.	.
.	.	ner	.	.	a)	.	.	.	.
.	.	than	.	_	.	.	.	.	.
.	.	the	.	.	.	.	.	.	.
=70	=70	=70	=70	=70	=70	=70	=70	=70	=70
1I	F:maj	lit-	.	_	.	114.975	.	voice	1F 1a 1cc
.	.	-tle	.	.	.	.	.	.	.
.	.	old	.	.	.	.	.	.	.
.	.	_	.	.	.	.	.	.	.
.	.	la-	.	.	.	.	.	.	.
.	.	-dy	.	.	.	.	.	.	.
.	.	from	.	.	.	.	.	.	.
=71	=71	=71	=71	=71	=71	=71	=71	=71	=71
1I	F:maj	Pa-	.	_	.	116.621	.	voice	1F 1a 1cc
.	.	-sa-	.	.	.	.	.	.	.
.	.	-de	.	.	(A	.	.	.	.
.	.	_	.	.	.	.	.	.	.
.	.	na	.	.	a)	.	.	.	.
.	.	.	.	Ooh!	.	.	.	.	.
.	.	.	She	.	.	.	.	.	.
=72	=72	=72	=72	=72	=72	=72	=72	=72	=72
1IV	B-:maj	.	drives	_	.	118.267	newline	voice	1B- 1dd 1ff
.	.	.	re-	.	.	.	.	.	.
.	.	.	-al	.	.	.	.	.	.
.	.	.	fast	.	.	.	.	.	.
.	.	.	and	.	.	.	.	.	.
.	.	.	she	.	.	.	.	.	.
=73	=73	=73	=73	=73	=73	=73	=73	=73	=73
*	*	*	*	*	*	*	*	*	*
1IV	B-:maj	.	drives	_	.	119.91	.	voice	1B- 1dd 1ff
.	.	.	_	.	.	.	.	.	.
.	.	.	real	.	.	.	.	.	.
.	.	.	.	_	.	.	.	.	.
.	.	.	hard	.	C	.	.	.	.
.	.	.	.	_	.	.	.	.	.
.	.	She's	.	.	.	.	.	.	.
.	.	.	.	_	.	.	.	.	.
.	.	the	.	.	.	.	.	.	.
=74	=74	=74	=74	=74	=74	=74	=74	=74	=74
1I	F:maj	ter-	.	_	.	121.552	.	voice	1F 1a 1cc
.	.	-ror	.	.	.	.	.	.	.
.	.	of	.	.	.	.	.	.	.
.	.	Co-	.	.	.	.	.	.	.
.	.	-lo-	.	.	.	.	.	.	.
.	.	-ra-	.	.	.	.	.	.	.
.	.	-do	.	.	.	.	.	.	.
=75	=75	=75	=75	=75	=75	=75	=75	=75	=75
1I	F:maj	Bou-	.	_	.	123.195	.	voice	1F 1a 1cc
.	.	-le-	.	.	.	.	.	.	.
.	.	-vard!	.	.	C	.	.	.	.
.	.	_	.	.	.	.	.	.	.
.	.	It's	.	.	.	.	.	.	.
.	.	the	.	.	.	.	.	.	.
=76	=76	=76	=76	=76	=76	=76	=76	=76	=76
1-III	A-:maj	lit-	lit-	.	.	124.837	newline	voice	1A- 1cc 1ee-
.	.	-tle	-tle	.	.	.	.	.	.
.	.	old	old	.	.	.	.	.	.
.	.	la-	la-	.	.	.	.	.	.
.	.	-dy	-dy	.	.	.	.	.	.
.	.	from	from	.	.	.	.	.	.
=77	=77	=77	=77	=77	=77	=77	=77	=77	=77
*	*	*	*	*	*	*	*	*	*D-:
1-VI	D-:maj	Pa-	Pa-	.	.	126.449	.	voice	1D- 1f 1a-
.	.	-sa-	-sa-	.	.	.	.	.	.
.	.	_	_	.	.	.	.	.	.
.	.	-de	-de	.	.	.	.	.	.
.	.	_	_	.	.	.	.	.	.
.	.	na	na	.	.	.	.	.	.
=78	=78	=78	=78	=78	=78	=78	=78	=78	=78
1-VI	D-:maj	_	_	.	.	128.06	.	voice	1D- 1f 1a-
.	.	.	.	.	.	.	.	.	.
.	.	.	.	.	.	.	.	.	.
.	.	_	.	.	.	.	.	.	.
.	.	.	.	.	.	.	.	.	.
=79	=79	=79	=79	=79	=79	=79	=79	=79	=79
*>Letter>B3	*>Letter>B3	*>Letter>B3	*>Letter>B3	*>Letter>B3	*>Letter>B3	*>Letter>B3	*>Letter>B3	*>Letter>B3	*>Letter>B3
*>Label>Outro	*>Label>Outro	*>Label>Outro	*>Label>Outro	*>Label>Outro	*>Label>Outro	*>Label>Outro	*>Label>Outro	*>Label>Outro	*>Label>Outro
1-VI	D-:maj	.	Go,	.	.	129.672	newline	voice	1D- 1f 1a-
.	.	.	gran-	.	.	.	.	.	.
.	.	.	-ny,	.	.	.	.	.	.
.	.	.	go,	.	.	.	.	.	.
.	.	.	gran-	.	.	.	.	.	.
.	.	.	-ny,	.	.	.	.	.	.
=80	=80	=80	=80	=80	=80	=80	=80	=80	=80
4.-II	G-:maj	.	go	.	.	131.316	.	voice	4.G- 4.b- 4.dd-
.	.	.	gran-	.	.	.	.	.	.
.	.	.	-ny	.	.	.	.	.	.
8%5-VI	D-:maj	.	go	.	.	132.138	.	voice	3...D- 3...f 3...a-
.	.	.	_	.	.	.	.	.	.
.	.	.	.	.	.	.	.	.	.
=81	=81	=81	=81	=81	=81	=81	=81	=81	=81
1-IIIm7	A-:7	.	Go,	.	.	132.96	.	voice	1A- 1cc 1ee- 1gg
.	.	.	gran-	.	.	.	.	.	.
.	.	.	-ny,	.	.	.	.	.	.
.	.	.	go,	.	.	.	.	.	.
.	.	.	gran-	.	.	.	.	.	.
.	.	.	-ny,	.	.	.	.	.	.
=82	=82	=82	=82	=82	=82	=82	=82	=82	=82
4.-VII	E-:maj	.	go	.	.	134.605	.	voice	4.E- 4.g 4.b-
.	.	.	gran-	.	.	.	.	.	.
.	.	.	-ny	.	.	.	.	.	.
8%5-IIIm7	A-:7	.	go	.	.	135.427	.	voice	3...A- 3...cc 3...ee- 3...gg
.	.	.	_	.	.	.	.	.	.
.	.	.	.	.	.	.	.	.	.
=83	=83	=83	=83	=83	=83	=83	=83	=83	=83
1-VI	D-:maj	.	Go,	.	.	136.249	newline	voice	1D- 1f 1a-
.	.	.	gran-	.	.	.	.	.	.
.	.	.	-ny,	.	.	.	.	.	.
.	.	.	go,	.	.	.	.	.	.
.	.	.	gran-	.	.	.	.	.	.
.	.	.	-ny,	.	.	.	.	.	.
=84	=84	=84	=84	=84	=84	=84	=84	=84	=84
4.-II	G-:maj	.	go	.	.	137.875	.	voice	4.G- 4.b- 4.dd-
.	.	.	gran-	.	.	.	.	.	.
.	.	.	-ny	.	.	.	.	.	.
8%5-VI	D-:maj	.	go	.	.	138.688	.	voice	3...D- 3...f 3...a-
.	.	.	_	.	.	.	.	.	.
.	.	.	.	.	.	.	.	.	.
=85	=85	=85	=85	=85	=85	=85	=85	=85	=85
1-IIIm7	A-:7	.	Go,	.	.	139.502	.	voice	1A- 1cc 1ee- 1gg
.	.	.	gran-	.	.	.	.	.	.
.	.	.	-ny,	.	.	.	.	.	.
.	.	.	go,	.	.	.	.	.	.
.	.	.	gran-	.	.	.	.	.	.
.	.	.	-ny,	.	.	.	.	.	.
=86	=86	=86	=86	=86	=86	=86	=86	=86	=86
4.-VII	E-:maj	.	go	.	.	141.128	.	voice	4.E- 4.g 4.b-
.	.	.	gran-	.	.	.	.	.	.
.	.	.	-ny	.	.	.	.	.	.
8%5-IIIm7	A-:7	.	go	.	.	141.941	.	voice	3...A- 3...cc 3...ee- 3...gg
.	.	.	_	.	.	.	.	.	.
.	.	.	.	.	.	.	.	.	.
=87	=87	=87	=87	=87	=87	=87	=87	=87	=87
1-VI	D-:maj	.	Go,	.	.	142.754	newline	voice	1D- 1f 1a-
.	.	.	gran-	.	.	.	.	.	.
.	.	.	-ny,	.	.	.	.	.	.
.	.	.	go,	.	.	.	.	.	.
.	.	.	gran-	.	.	.	.	.	.
.	.	.	-ny,	.	.	.	.	.	.
=88	=88	=88	=88	=88	=88	=88	=88	=88	=88
4.-II	G-:maj	.	go	.	.	144.357	.	voice	4.G- 4.b- 4.dd-
.	.	.	gran-	.	.	.	.	.	.
.	.	.	-ny	.	.	.	.	.	.
8%5-VI	D-:maj	.	go	.	.	145.158	.	voice	3...D- 3...f 3...a-
.	.	.	_	.	.	.	.	.	.
.	.	.	.	.	.	.	.	.	.
=89	=89	=89	=89	=89	=89	=89	=89	=89	=89
1-IIIm7	A-:7	.	Go,	.	.	145.96	.	voice	1A- 1cc 1ee- 1gg
.	.	.	gran-	.	.	.	.	.	.
.	.	.	-ny,	.	.	.	.	.	.
.	.	.	go,	.	.	.	.	.	.
.	.	.	gran-	.	.	.	.	.	.
.	.	.	-ny,	.	.	.	.	.	.
=90	=90	=90	=90	=90	=90	=90	=90	=90	=90
4.-VII	E-:maj	.	go	.	.	147.562	.	voice	4.E- 4.g 4.b-
.	.	.	gran-	.	.	.	.	.	.
.	.	.	-ny	.	.	.	.	.	.
8%5-IIIm7	A-:7	.	go	.	.	148.364	.	voice	3...A- 3...cc 3...ee- 3...gg
.	.	.	_	.	.	.	.	.	.
.	.	.	.	.	.	.	.	.	.
=91	=91	=91	=91	=91	=91	=91	=91	=91	=91
1-VI	D-:maj	.	Go,	.	.	149.165	newline	fadeout	1D- 1f 1a-
.	.	.	gran-	.	.	.	.	.	.
.	.	.	-ny,	.	.	.	.	.	.
.	.	.	go,	.	.	.	.	.	.
.	.	.	gran-	.	.	.	.	.	.
.	.	.	-ny,	.	.	.	.	.	.
=92	=92	=92	=92	=92	=92	=92	=92	=92	=92
4.-II	G-:maj	.	go	.	.	150.796	.	fadeout	4.G- 4.b- 4.dd-
.	.	.	gran-	.	.	.	.	.	.
.	.	.	-ny	.	.	.	.	.	.
8%5-VI	D-:maj	.	go	.	.	151.612	.	fadeout	3...D- 3...f 3...a-
.	.	.	_	.	.	.	.	.	.
.	.	.	.	.	.	.	.	.	.
=93	=93	=93	=93	=93	=93	=93	=93	=93	=93
1-IIIm7	A-:7	.	Go,	.	.	152.427	.	fadeout	1A- 1cc 1ee- 1gg
.	.	.	gran-	.	.	.	.	.	.
.	.	.	-ny,	.	.	.	.	.	.
.	.	.	go,	.	.	.	.	.	.
.	.	.	gran-	.	.	.	.	.	.
.	.	.	-ny,	.	.	.	.	.	.
=94	=94	=94	=94	=94	=94	=94	=94	=94	=94
4.-VII	E-:maj	.	go	.	.	154.059	.	fadeout	4.E- 4.g 4.b-
.	.	.	gran-	.	.	.	.	.	.
.	.	.	-ny	.	.	.	.	.	.
8%5-IIIm7	A-:7	.	go	.	.	154.874	.	fadeout	3...A- 3...cc 3...ee- 3...gg
.	.	.	_	.	.	.	.	.	.
.	.	.	.	.	.	.	.	.	.
=95	=95	=95	=95	=95	=95	=95	=95	=95	=95
1-VI	D-:maj	.	Go,	.	.	155.69	newline	fadeout	1D- 1f 1a-
.	.	.	gran-	.	.	.	.	.	.
.	.	.	-ny,	.	.	.	.	.	.
.	.	.	go,	.	.	.	.	.	.
.	.	.	gran-	.	.	.	.	.	.
.	.	.	-ny,	.	.	.	.	.	.
=96	=96	=96	=96	=96	=96	=96	=96	=96	=96
4.-II	G-:maj	.	go	.	.	157.319	.	fadeout	4.G- 4.b- 4.dd-
.	.	.	gran-	.	.	.	.	.	.
.	.	.	-ny	.	.	.	.	.	.
8%5-VI	D-:maj	.	go	.	.	158.133	.	fadeout	3...D- 3...f 3...a-
.	.	.	_	.	.	.	.	.	.
.	.	.	.	.	.	.	.	.	.
=97	=97	=97	=97	=97	=97	=97	=97	=97	=97
1-IIIm7	A-:7	.	Go,	.	.	158.947	.	fadeout	1A- 1cc 1ee- 1gg
.	.	.	gran-	.	.	.	.	.	.
.	.	.	-ny,	.	.	.	.	.	.
.	.	.	go,	.	.	.	.	.	.
.	.	.	gran-	.	.	.	.	.	.
.	.	.	-ny,	.	.	.	.	.	.
=98	=98	=98	=98	=98	=98	=98	=98	=98	=98
4.-VII	E-:maj	.	go	.	.	160.576	.	fadeout	4.E- 4.g 4.b-
.	.	.	gran-	.	.	.	.	.	.
.	.	.	-ny	.	.	.	.	.	.
8%5-IIIm7	A-:7	.	go	.	.	161.39	.	fadeout	3...A- 3...cc 3...ee- 3...gg
.	.	.	_	.	.	.	.	.	.
.	.	.	.	.	.	.	.	.	.
=99	=99	=99	=99	=99	=99	=99	=99	=99	=99
1-VI	D-:maj	.	Go,	.	.	162.205	newline	voice	1D- 1f 1a-
.	.	.	gran-	.	.	.	.	.	.
.	.	.	-ny,	.	.	.	.	.	.
.	.	.	go,	.	.	.	.	.	.
.	.	.	gran-	.	.	.	.	.	.
.	.	.	-ny,	.	.	.	.	.	.
=100	=100	=100	=100	=100	=100	=100	=100	=100	=100
4.-II	G-:maj	.	go	.	.	163.049	.	voice	4.G- 4.b- 4.dd-
.	.	.	gran-	.	.	.	.	.	.
.	.	.	-ny	.	.	.	.	.	.
8%5-VI	D-:maj	.	go	.	.	163.471	.	voice	3...D- 3...f 3...a-
.	.	.	_	.	.	.	.	.	.
.	.	.	.	.	.	.	.	.	.
=101	=101	=101	=101	=101	=101	=101	=101	=101	=101
1-IIIm7	A-:7	.	Go,	.	.	163.893	.	voice	1A- 1cc 1ee- 1gg
.	.	.	gran-	.	.	.	.	.	.
.	.	.	-ny,	.	.	.	.	.	.
.	.	.	go,	.	.	.	.	.	.
.	.	.	gran-	.	.	.	.	.	.
.	.	.	-ny,	.	.	.	.	.	.
=102	=102	=102	=102	=102	=102	=102	=102	=102	=102
4.-VII	E-:maj	.	go	.	.	164.738	.	voice	4.E- 4.g 4.b-
.	.	.	gran-	.	.	.	.	.	.
.	.	.	-ny	.	.	.	.	.	.
8%5-IIIm7	A-:7	.	go	.	.	165.16	.	voice	3...A- 3...cc 3...ee- 3...gg
.	.	.	_	.	.	.	.	.	.
.	.	.	.	.	.	.	.	.	.
1r;	N	.	.	.	.	165.582	.	r	1r;
1r;	N	.	.	.	.	166.766	.	r	1r;
*-	*-	*-	*-	*-	*-	*-	*-	*-	*-
!!!BillboardChartDate: 1964/07/04
!!!BillboardPeak: 3
!!!BillboardWeeksOnChart: 11
!!!COC: Jan & Dean
!!!ENC: Nathaniel Condit-Schultz
!!!EST: Awating manual error checking and editing.
!!!OTL: The Little Old Lady (From Pasadena)
!!!RDF**harte: Chris Harte's syntax, used by MIREX
!!!RDF**harmony: **recip + pitch class of root + harmonic quality
!!!RDF**leadinstrument: original McGill primary instrumentation annotation
!!!RDF**phrase: newline = linebreak in original McGill transcription
!!!RDF**timestamp: McGill audio timestamp in seconds
!!!RDT: 2017/01/12/
!!!SampleActualRank: 22
!!!SampleID#: 0635
!!!SampleTargetRank: 21
!!!MBID: 3458e94e-792c-4893-84fa-84a0424e9fcd
